X:4017
T:Double Lead Through
R:March
C:Trad. via William Kimber
O:England; Headington
Z:Paul Hardy's Session Tunebook 2022 (see www.paulhardy.net). Creative Commons cc by-nc-sa licenced.
M:2/2
L:1/8
Q:1/2=90
K:G
d2|"G"g2d2 "D7"c2A2|"G"G2G2 GABG|"C"E2E2 "D7"F2D2|"G"G4-G2:|G2|
|:"D"A3d ^c2d2|A2d2 ^c2d2|1 A2d2 "A7"e2A2|"D"f4-f4:|2 "A7"A2g2 f2e2|"D7"d2c2 B2A2|
|:"G"G2G2 GABG|"D7"A2A2 ABcA|"G"Bcd2 "C"cde2|"D7"e2d2 d2ef|"C"g2g2 gfe2|
"G"d2d2 dcB2|"D7"ABc2 "G"Bcd2|1 "C"egfe "D7"dcBA:|2 "C"e2"D7"f2 "G"g4|]

